X:1
T:Electric Hornpipe [1]
M:2/4
L:1/8
R:Hornpipe
B:Elias Howe – Musician’s Omnibus Nos. 6 & 7 (Boston, 1880-1882, p. 628)
B:  http://ks4.imslp.net/files/imglnks/usimg/c/c7/IMSLP601433-PMLP562790-ONeill_Rare_Medium_M40_M8_v6.7_text.pdf
Z:AK/Fiddler’s Companion
K:A
B/A/|G/E/G/B/ A(c/e/)|a/g/f/e/ d/c/B/A/|G/E/G/B/ A/B/c/A/|B/d/c/B/ A/c/B/A/|
G/E/G/B/ A(c/e/)|a/g/f/e/ d/c/B/A/|G/E/G/B/ A/B/c/A/|B/d/c/B/ A!fermata!:|
|:e/f/|g/e/B/e/ g/e/b/g/|a/e/c/e/ a/e/c’/e/| b/e/d’/e/ b/e/d’/e/|a/e/c’/e e’(e/f/)|
g/e/B/e/ g/e/b/g/|a/g/f/e/ d/c/B/A/|G/A/B/c/ d/e/f/g/|aaa:|]

